Catalina-light/actions/16/mail-sent-symbolic.svg

<?xml version="1.0" encoding="UTF-8" standalone="no"?>
<svg
   xmlns:dc="http://purl.org/dc/elements/1.1/"
   xmlns:cc="http://creativecommons.org/ns#"
   xmlns:rdf="http://www.w3.org/1999/02/22-rdf-syntax-ns#"
   xmlns:svg="http://www.w3.org/2000/svg"
   xmlns="http://www.w3.org/2000/svg"
   xmlns:sodipodi="http://sodipodi.sourceforge.net/DTD/sodipodi-0.dtd"
   xmlns:inkscape="http://www.inkscape.org/namespaces/inkscape"
   width="16"
   height="16"
   version="1.1"
   id="svg4"
   sodipodi:docname="mail-sent-symbolic.svg"
   inkscape:version="0.92.4 (unknown)">
  <metadata
     id="metadata10">
    <rdf:RDF>
      <cc:Work
         rdf:about="">
        <dc:format>image/svg+xml</dc:format>
        <dc:type
           rdf:resource="http://purl.org/dc/dcmitype/StillImage" />
        <dc:title></dc:title>
      </cc:Work>
    </rdf:RDF>
  </metadata>
  <defs
     id="defs8" />
  <sodipodi:namedview
     pagecolor="#ffffff"
     bordercolor="#666666"
     borderopacity="1"
     objecttolerance="10"
     gridtolerance="10"
     guidetolerance="10"
     inkscape:pageopacity="0"
     inkscape:pageshadow="2"
     inkscape:window-width="1920"
     inkscape:window-height="1016"
     id="namedview6"
     showgrid="false"
     inkscape:zoom="29.5"
     inkscape:cx="11.020569"
     inkscape:cy="10.641458"
     inkscape:window-x="0"
     inkscape:window-y="27"
     inkscape:window-maximized="1"
     inkscape:current-layer="svg4" />
  <path
     style="overflow:visible;fill:#000000;fill-opacity:0.08"
     d="M 13.535156 2.4589844 L 2.9257812 6.9589844 L 6.3632812 8.6757812 C 7.9062812 7.2427813 11.615984 4.3840156 12.833984 3.1660156 C 11.615984 4.3840156 8.7532656 8.0956719 7.3222656 9.6386719 L 9.0429688 13.082031 L 13.537109 2.4589844 L 13.535156 2.4589844 z "
     id="path817" />
  <path
     d="m 15.31,0.666 -14.64,6.285 5.584,2.79 2.79,5.581 0.007,0.006 0.004,0.004 L 15.33,0.67 15.326,0.668 H 15.32 15.316 c -0.0012,-9.6008e-4 -0.0025,-0.001644 -0.004,-0.002 z M 13.537,2.459 9.043,13.082 7.323,9.639 C 8.754,8.096 11.616,4.384 12.834,3.166 11.616,4.384 7.907,7.243 6.364,8.676 L 2.925,6.959 13.536,2.459 Z"
     overflow="visible"
     id="path2"
     inkscape:connector-curvature="0"
     style="overflow:visible;fill:#000000;fill-opacity:0.57983196"
     sodipodi:nodetypes="cccccccccccccccccccc" />
</svg>

<svg width="16" height="16" version="1.1" xmlns="http://www.w3.org/2000/svg">
<path d="m13.535 2.459-10.609 4.5 3.4375 1.7168c1.543-1.433 5.2527-4.2918 6.4707-5.5098-1.218 1.218-4.0807 4.9297-5.5117 6.4727l1.7207 3.4434 4.4941-10.623h-0.001953z" fill-opacity=".08"/>
<path d="m15.31 0.666-14.64 6.285 5.584 2.79 2.79 5.581 7e-3 6e-3 4e-3 4e-3 6.275-14.662-4e-3 -2e-3h-0.01c-0.0012-9.6008e-4 -0.0025-0.001644-4e-3 -2e-3zm-1.773 1.793-4.494 10.623-1.72-3.443c1.431-1.543 4.293-5.255 5.511-6.473-1.218 1.218-4.927 4.077-6.47 5.51l-3.439-1.717 10.611-4.5z" fill-opacity=".57983" overflow="visible"/>
</svg>
